X:90
M:C|
L:1/8
Q:1/2=80
K:D
(CD)(EC) D2D2| D2 (DF) A,2A,2|D2 (DF) A2A2|
{d}(cB)(cd) e2 (ef)|g2 (ge) (fa)(fd)|
(eg)(ec) d2d2|(DF)(Ad) A2 (Ad)|{d}(cB)(cd) e2 (ef)|\
g2 (ge) (fa)(fd)|(eg)(ec) d4:|

